!!!!SEGMENT: pl-kk--kk-i-328--002_constanzi--beatus-vir-potens-in-terra.krn
!!!cenid: 17xx:2140
!!!COM: Constanzi
!!!COM-rismID: pe50046616
!!!CDT:
!!!CNT:
!!!OPR: Beatus vir
!!!OTL: Potens in terra
!!!OMV: 002
!!!PDT:
!!!AGN: Sacred
!!!SMS-siglum: PL-Kk
!!!SMS-shelfmark: Kk.I.328
!!!SMS-shelfwork: 001-002 M
!!!SMS-variant:
!!!SMS-altvar:
!!!NIFC-rismSourceID: 1001145915
!!!NIFC-islandoraID: pl-kk:5487
!!!URL-pdf-islandora: https://repozytorium.nifc.pl/islandora/object/pl-kk%3A5487/datastream/PDF/view
!!!URL-scan: https://polish.musicsources.pl/pl/lokalizacje/galeria/rekopisy/5947 @EN{Scan on Polish Music Sources Website} @PL{Skany w portalu Dziedzictwo Muzyki Polskiej w otwartym dostępie}
!!!ONB-nifc: UWAGA: części Beatus vir: 1. Beatus vir, 2. Potens in terra, 3. Gloria et divitiae, 4. Exortum est 5. Iucundus homo, 6. In memoria, 7. Paratum cor eius, 8. Peccator videbit, 9. Gloria patri
!!!AIN: 2 alto 1 empty 1 organ 1 tenor 2 vox
!!!key:
**kern	**fba	**fb	**kern	**kern	**kern	**kern	**kern	**kern	**text
*part7	*part7	*part7	*part6	*part5	*part4	*part3	*part2	*part1	*part1
*staff7	*staff7	*staff7	*staff6	*staff5	*staff4	*staff3	*staff2	*staff1	*staff1
*Iorgan	*	*	*Iempty	*Itenor	*Ialto	*Ivox	*Ialto	*Ivox	*
*I"Organo	*	*	*I"Baſso di ripieno	*I"Tenore di ripieno	*I"Alto di ripieno	*I"Canto di ripieno	*I"Alto	*I"Canto	*
*I'Org.	*	*	*I'B. rip.	*I'T. rip.	*I'A. rip.	*I'C.rip.	*I'A.	*I'C.	*
*clefF4	*	*	*clefF4	*clefC4	*clefC3	*clefC1	*clefC3	*clefC1	*
*k[f#]	*	*	*k[f#]	*k[f#]	*k[f#]	*k[f#]	*k[f#]	*k[f#]	*
*G:	*	*	*G:	*G:	*G:	*G:	*G:	*G:	*
*M2/2	*	*	*M2/2	*M2/2	*M2/2	*M2/2	*M2/2	*M2/2	*
*met(c|)	*	*	*met(c|)	*met(c|)	*met(c|)	*met(c|)	*met(c|)	*met(c|)	*
=1	=1	=1	=1	=1	=1	=1	=1	=1	=1
*2\right	*	*	*	*	*	*	*	*	*
!LO:TX:t=P:problem=all\right&colon; global	!	!	!	!	!	!	!	!LO:TX:t=P:problem=all\right&colon; global	!
!LO:TX:a:t=Ritor.	!	!	!	!	!	!	!	!	!
!LO:TX:b:t=Potens	!	!	!	!	!	!	!	!LO:TX:a:t=Moderato	!
!LO:TX:a:t=Moderato	!	!	!	!	!	!	!	!LO:TX:a:t=Solo	!
!LO:TX:a:t=Canto Solo	!	!	!LO:TX:a:t=Potens in Terra Tacet	!LO:TX:a:t=Potens in terra Tacet	!LO:TX:a:t=Potens in terra Tacet	!LO:TX:a:t=Potens in Terra Tacet	!LO:TX:a:t=Potens in terra Tacet	!LO:TX:b:t=4	!
!	!	!	!	!	!	!	!	!LO:TX:t=P:problem=pauza 00r	!
2G\	.	.	1ryy	1ryy	1ryy	1ryy	1ryy	00r	.
!LO:TUP:a:problem=klamra łukowa	!	!	!	!	!	!	!	!	!
12B\L	.	.	.	.	.	.	.	.	.
12c\	.	.	.	.	.	.	.	.	.
12d\J	.	.	.	.	.	.	.	.	.
4c\	.	.	.	.	.	.	.	.	.
=2	=2	=2	=2	=2	=2	=2	=2	=2	=2
4A\	.	.	1ryy	1ryy	1ryy	1ryy	1ryy	.	.
4B\	.	.	.	.	.	.	.	.	.
4r	.	.	.	.	.	.	.	.	.
4G\	.	.	.	.	.	.	.	.	.
=3	=3	=3	=3	=3	=3	=3	=3	=3	=3
8E\L	.	.	1ryy	1ryy	1ryy	1ryy	1ryy	.	.
8c\	.	.	.	.	.	.	.	.	.
8B\	.	.	.	.	.	.	.	.	.
8A\J	.	.	.	.	.	.	.	.	.
8B\L	.	.	.	.	.	.	.	.	.
8G\	.	.	.	.	.	.	.	.	.
8A\	.	.	.	.	.	.	.	.	.
8F#\J	.	.	.	.	.	.	.	.	.
!LO:LB:g=original	!	!	!	!	!	!	!	!	!
=4	=4	=4	=4	=4	=4	=4	=4	=4	=4
4G\	.	.	1ryy	1ryy	1ryy	1ryy	1ryy	.	.
4D\	.	.	.	.	.	.	.	.	.
2GG/	.	.	.	.	.	.	.	.	.
=5	=5	=5	=5	=5	=5	=5	=5	=5	=5
*	*	*	*	*	*	*	*	*2\right	*
!LO:TX:a:t=C.0	!	!	!	!	!	!	!	!	!
2G\	.	.	1ryy	1ryy	1ryy	1ryy	1ryy	2g'\	Po-
4r	.	.	.	.	.	.	.	4b'\	-tens
4G\	.	.	.	.	.	.	.	4dd'\	in
=6	=6	=6	=6	=6	=6	=6	=6	=6	=6
4D\	.	.	1ryy	1ryy	1ryy	1ryy	1ryy	8.a\L	ter-
.	.	.	.	.	.	.	.	32b\LL	.
.	.	.	.	.	.	.	.	32cc\JJJ	.
4G\	.	.	.	.	.	.	.	4b\	-ra
4r	.	.	.	.	.	.	.	[2g\	e-
4BB\	6	.	.	.	.	.	.	.	.
!	!	!	!	!	!	!	!	!LO:LB:g=original	!
=7	=7	=7	=7	=7	=7	=7	=7	=7	=7
2C\	5	.	1ryy	1ryy	1ryy	1ryy	1ryy	4g\]	.
*	*	*	*	*	*	*	*	*Xtuplet	*
!	!	!	!	!	!	!	!	!LO:TUP:a:problem=klamra łukowa	!
.	.	.	.	.	.	.	.	12cc\L	-rit
.	.	.	.	.	.	.	.	12dd\	.
.	.	.	.	.	.	.	.	12ee\J	.
!	!	!	!	!	!	!	!	!LO:TUP:a:problem=klamra łukowa	!
4r	.	.	.	.	.	.	.	12dd\L	ſe-
.	.	.	.	.	.	.	.	12cc\	.
.	.	.	.	.	.	.	.	12b\J	.
!LO:LB:g=original	!	!	!	!	!	!	!	!LO:TUP:a:problem=klamra łukowa	!
4D\	.	.	.	.	.	.	.	12a\L	-men
.	.	.	.	.	.	.	.	12g\	.
.	.	.	.	.	.	.	.	12f#\J	.
=8	=8	=8	=8	=8	=8	=8	=8	=8	=8
4E\	.	.	1ryy	1ryy	1ryy	1ryy	1ryy	8.g\L	e-
.	.	.	.	.	.	.	.	16f#\Jk	.
4r	.	.	.	.	.	.	.	4g\	-ius
4r	.	.	.	.	.	.	.	2g\	e-
4B\	6	.	.	.	.	.	.	.	.
!	!	!	!	!	!	!	!	!LO:PB:g=original	!
=9	=9	=9	=9	=9	=9	=9	=9	=9	=9
*	*below	*	*	*	*	*	*	*	*
4c\	5	.	1ryy	1ryy	1ryy	1ryy	1ryy	4g\	.
!	!	!	!	!	!	!	!	!LO:TUP:a:problem=klamra łukowa	!
4c\	.	.	.	.	.	.	.	12cc\L	-rit
.	.	.	.	.	.	.	.	12dd\	.
.	.	.	.	.	.	.	.	12ee\J	.
!	!	!	!	!	!	!	!	!LO:TUP:a:problem=klamra łukowa	!
4d\	43	.	.	.	.	.	.	12dd\L	ſe-
.	.	.	.	.	.	.	.	12cc\	.
.	.	.	.	.	.	.	.	12b\J	.
!	!	!	!	!	!	!	!	!LO:TUP:a:problem=klamra łukowa	!
4D\	.	.	.	.	.	.	.	12a\L	-men
.	.	.	.	.	.	.	.	12b\	.
.	.	.	.	.	.	.	.	12cc\J	.
=10	=10	=10	=10	=10	=10	=10	=10	=10	=10
4G\	.	.	1ryy	1ryy	1ryy	1ryy	1ryy	12b\L	e-
.	.	.	.	.	.	.	.	12a\	.
.	.	.	.	.	.	.	.	12g\J	.
4G\	.	.	.	.	.	.	.	2g\	-ius
4G\	.	.	.	.	.	.	.	.	.
4G\	.	.	.	.	.	.	.	4r	.
*clefC4	*	*	*	*	*	*	*	*	*
*k[f#]	*	*	*k[f#]	*k[f#]	*k[f#]	*k[f#]	*k[f#]	*k[f#]	*
=11	=11	=11	=11	=11	=11	=11	=11	=11	=11
4g#X\	.	.	1ryy	1ryy	1ryy	1ryy	1ryy	8b\L	ge-
.	.	.	.	.	.	.	.	8ee\J	.
4g#\	.	.	.	.	.	.	.	2.ee\	-ne-
4g#\	.	.	.	.	.	.	.	.	.
4g#\	.	.	.	.	.	.	.	.	.
!LO:LB:g=original	!	!	!	!	!	!	!	!	!
=12	=12	=12	=12	=12	=12	=12	=12	=12	=12
4g#X\	.	.	1ryy	1ryy	1ryy	1ryy	1ryy	8ee\L	-ra-
.	.	.	.	.	.	.	.	8b\J	.
4g#\	.	.	.	.	.	.	.	2.b\	-ti-
4g#\	.	.	.	.	.	.	.	.	.
4g#\	.	.	.	.	.	.	.	.	.
!	!	!	!	!	!	!	!	!LO:LB:g=original	!
=13	=13	=13	=13	=13	=13	=13	=13	=13	=13
4a\	#3	.	1ryy	1ryy	1ryy	1ryy	1ryy	(8b\L	-o
.	.	.	.	.	.	.	.	8cc#X\J)	.
*clefF4	*	*	*	*	*	*	*	*	*
*k[f#]	*	*	*k[f#]	*k[f#]	*k[f#]	*k[f#]	*k[f#]	*k[f#]	*
4A\	.	.	.	.	.	.	.	(8cc#X\L	re-
.	.	.	.	.	.	.	.	8dd\J)	.
4A\	.	.	.	.	.	.	.	2dd\	-cto-
4Gn\	.	.	.	.	.	.	.	.	.
=14	=14	=14	=14	=14	=14	=14	=14	=14	=14
*	*above	*	*	*	*	*	*	*	*
4F#\	6	.	1ryy	1ryy	1ryy	1ryy	1ryy	4cc#X\	-rum
4r	.	.	.	.	.	.	.	4a\	be-
4r	.	.	.	.	.	.	.	4a\	-ne-
4C#X/	.	.	.	.	.	.	.	4a\	-di-
=15	=15	=15	=15	=15	=15	=15	=15	=15	=15
!	!	!	!	!	!	!	!	!LO:TUP:a:problem=klamra łukowa	!
4D\	.	.	1ryy	1ryy	1ryy	1ryy	1ryy	12a\L	-ce-
.	.	.	.	.	.	.	.	12g#X\	.
.	.	.	.	.	.	.	.	12a\J	.
!	!	!	!	!	!	!	!	!LO:TUP:a:problem=klamra łukowa	!
4r	.	.	.	.	.	.	.	12dd\L	.
.	.	.	.	.	.	.	.	12cc#X\	.
.	.	.	.	.	.	.	.	12b\J	.
!LO:LB:g=original	!	!	!	!	!	!	!	!	!
=-	=-	=-	=-	=-	=-	=-	=-	=-	=-
!	!	!	!	!	!	!	!	!LO:TUP:a:problem=klamra łukowa	!
4r	.	.	.	.	.	.	.	12a\L	.
.	.	.	.	.	.	.	.	12g#X\	.
.	.	.	.	.	.	.	.	12a\J	.
4C#X\	6	.	.	.	.	.	.	8a\	.
.	.	.	.	.	.	.	.	8r	.
!	!	!	!	!	!	!	!	!LO:LB:g=original	!
=16	=16	=16	=16	=16	=16	=16	=16	=16	=16
!LO:TX:a:t=P:problem=pominięty fragment	!	!	!	!	!	!	!	!LO:TUP:a:problem=klamra łukowa	!
1ryy	.	.	1ryy	1ryy	1ryy	1ryy	1ryy	12a\L	.
.	.	.	.	.	.	.	.	12g#X\	.
.	.	.	.	.	.	.	.	12a\J	.
!	!	!	!	!	!	!	!	!LO:TUP:a:problem=klamra łukowa	!
.	.	.	.	.	.	.	.	12dd\L	.
.	.	.	.	.	.	.	.	12cc#X\	.
.	.	.	.	.	.	.	.	12b\J	.
!	!	!	!	!	!	!	!	!LO:TUP:a:problem=klamra łukowa	!
.	.	.	.	.	.	.	.	12a\L	.
.	.	.	.	.	.	.	.	12g#X\	.
.	.	.	.	.	.	.	.	12b\J	.
.	.	.	.	.	.	.	.	8a\	.
.	.	.	.	.	.	.	.	8r	.
=17	=17	=17	=17	=17	=17	=17	=17	=17	=17
4D\	.	.	1ryy	1ryy	1ryy	1ryy	1ryy	4a\	.
4D\	.	.	.	.	.	.	.	2aa\	.
4F#\	.	.	.	.	.	.	.	.	.
4F#\	.	.	.	.	.	.	.	16gg\LL	.
.	.	.	.	.	.	.	.	16ff#\	.
.	.	.	.	.	.	.	.	16ee\	.
.	.	.	.	.	.	.	.	16dd\JJ	.
=18	=18	=18	=18	=18	=18	=18	=18	=18	=18
4G\	6	.	1ryy	1ryy	1ryy	1ryy	1ryy	4ee\	.
4G\	.	.	.	.	.	.	.	2gg\	.
*	*below	*	*	*	*	*	*	*	*
4A\	4r#	.	.	.	.	.	.	.	.
4A\	3	.	.	.	.	.	.	16ff#\LL	.
.	.	.	.	.	.	.	.	16ee\	.
.	.	.	.	.	.	.	.	16dd\	.
.	.	.	.	.	.	.	.	16cc#X\JJ	.
!	!	!	!	!	!	!	!	!LO:LB:g=original	!
=19	=19	=19	=19	=19	=19	=19	=19	=19	=19
4D\	.	.	1ryy	1ryy	1ryy	1ryy	1ryy	4dd\	.
4D\	.	.	.	.	.	.	.	2aa\	.
4F#\	.	.	.	.	.	.	.	.	.
4F#\	.	.	.	.	.	.	.	16gg\LL	.
.	.	.	.	.	.	.	.	16ff#\	.
.	.	.	.	.	.	.	.	16ee\	.
.	.	.	.	.	.	.	.	16dd\JJ	.
!LO:LB:g=original	!	!	!	!	!	!	!	!	!
=20	=20	=20	=20	=20	=20	=20	=20	=20	=20
4r	.	.	1ryy	1ryy	1ryy	1ryy	1ryy	4ee\	.
4G\	.	.	.	.	.	.	.	2gg\	.
4A\	.	.	.	.	.	.	.	.	.
4A\	.	.	.	.	.	.	.	16ff#\LL	.
.	.	.	.	.	.	.	.	16ee\	.
.	.	.	.	.	.	.	.	16dd\	.
.	.	.	.	.	.	.	.	16cc#X\JJ	.
=21	=21	=21	=21	=21	=21	=21	=21	=21	=21
4D\	.	.	1ryy	1ryy	1ryy	1ryy	1ryy	(8dd\L	.
.	.	.	.	.	.	.	.	8cc#X\	.
4r	.	.	.	.	.	.	.	8dd\)	.
.	.	.	.	.	.	.	.	8ee\J	.
!	!	!	!	!	!	!	!	!LO:LB:g=original	!
=-	=-	=-	=-	=-	=-	=-	=-	=-	=-
8r	.	.	.	.	.	.	.	8dd\L	.
8AA/L	.	.	.	.	.	.	.	(8cc#X\	.
8BB/	.	.	.	.	.	.	.	8dd\	.
8C#X/J	.	.	.	.	.	.	.	8ee\J)	.
=22	=22	=22	=22	=22	=22	=22	=22	=22	=22
4D\	.	.	1ryy	1ryy	1ryy	1ryy	1ryy	(4.ff#\	.
4D\	.	.	.	.	.	.	.	.	.
.	.	.	.	.	.	.	.	16ee\LL)	.
.	.	.	.	.	.	.	.	16ff#\JJ	.
4G\	.	.	.	.	.	.	.	4gg\	.
4G\	.	.	.	.	.	.	.	4b\	.
=23	=23	=23	=23	=23	=23	=23	=23	=23	=23
*	*above	*	*	*	*	*	*	*	*
8A\L	6 4	.	1ryy	1ryy	1ryy	1ryy	1ryy	2dd\	.
8A\	.	.	.	.	.	.	.	.	.
8A\	.	.	.	.	.	.	.	.	.
8A\J	.	.	.	.	.	.	.	.	.
!LO:LB:g=original	!	!	!	!	!	!	!	!	!
=-	=-	=-	=-	=-	=-	=-	=-	=-	=-
8AA/L	X #	.	.	.	.	.	.	4.cc#X\	.
8AA/	5 3	.	.	.	.	.	.	.	.
8AA/	.	.	.	.	.	.	.	.	.
8AA/J	.	.	.	.	.	.	.	16b\LL	.
.	.	.	.	.	.	.	.	16cc#\JJ	.
!	!	!	!	!	!	!	!	!LO:LB:g=original	!
=24	=24	=24	=24	=24	=24	=24	=24	=24	=24
!	!	!	!	!	!	!	!	!LO:N:vis=8	!
4D\	.	.	1ryy	1ryy	1ryy	1ryy	1ryy	4dd\	-tur
4r	.	.	.	.	.	.	.	12cc#X\L	be-
.	.	.	.	.	.	.	.	12dd\	.
.	.	.	.	.	.	.	.	12ee\J	.
8r	.	.	.	.	.	.	.	8ff#\L	-ne-
8C#X\L	.	.	.	.	.	.	.	8ee\J	.
8D\	.	.	.	.	.	.	.	8ff#\L	-di-
8E\J	.	.	.	.	.	.	.	8gg\J	.
=25	=25	=25	=25	=25	=25	=25	=25	=25	=25
4F#\	.	.	1ryy	1ryy	1ryy	1ryy	1ryy	4.aa\	-ce-
4F#\	.	.	.	.	.	.	.	.	.
.	.	.	.	.	.	.	.	16gg\LL	.
.	.	.	.	.	.	.	.	16aa\JJ	.
4G\	.	.	.	.	.	.	.	4bb\	.
4B\	6	.	.	.	.	.	.	4gg\	.
=26	=26	=26	=26	=26	=26	=26	=26	=26	=26
!	!	!	!	!	!	!	!	!LO:TUP:a:problem=klamra łukowa	!
4A\	6 4	.	1ryy	1ryy	1ryy	1ryy	1ryy	12ff#\L	.
.	.	.	.	.	.	.	.	12aa\	.
.	.	.	.	.	.	.	.	12gg\J	.
!	!	!	!	!	!	!	!	!LO:TUP:a:problem=klamra łukowa	!
4A\	.	.	.	.	.	.	.	12ff#\L	.
.	.	.	.	.	.	.	.	12ee\	.
.	.	.	.	.	.	.	.	12dd\J	.
!	!	!	!	!	!	!	!	!LO:LB:g=original	!
=-	=-	=-	=-	=-	=-	=-	=-	=-	=-
4AA/	X #	.	.	.	.	.	.	2ee\	.
4AA/	5 3	.	.	.	.	.	.	.	.
=27	=27	=27	=27	=27	=27	=27	=27	=27	=27
!LO:TX:a:t=ritor.(nel)lo	!	!	!	!	!	!	!	!	!
2D\	.	.	1ryy	1ryy	1ryy	1ryy	1ryy	4dd\	-tur
.	.	.	.	.	.	.	.	4r	.
!LO:LB:g=original	!	!	!	!	!	!	!	!	!
=-	=-	=-	=-	=-	=-	=-	=-	=-	=-
*Xtuplet	*	*	*	*	*	*	*	*	*
!LO:TUP:a:problem=klamra łukowa	!	!	!	!	!	!	!	!	!
12G\L	.	.	.	.	.	.	.	2r	.
12A\	.	.	.	.	.	.	.	.	.
12B\J	.	.	.	.	.	.	.	.	.
4A\	#3	.	.	.	.	.	.	.	.
=28	=28	=28	=28	=28	=28	=28	=28	=28	=28
!LO:TUP:a:problem=klamra łukowa	!	!	!	!	!	!	!	!LO:TX:b:t=3	!
12E\L	.	.	1ryy	1ryy	1ryy	1ryy	1ryy	0r	.
12F#\	.	.	.	.	.	.	.	.	.
12G\J	.	.	.	.	.	.	.	.	.
2F#\	.	.	.	.	.	.	.	.	.
4d\	.	.	.	.	.	.	.	.	.
=29	=29	=29	=29	=29	=29	=29	=29	=29	=29
4G\	.	.	1ryy	1ryy	1ryy	1ryy	1ryy	.	.
8F#\L	.	.	.	.	.	.	.	.	.
8G\J	.	.	.	.	.	.	.	.	.
4A\	.	.	.	.	.	.	.	.	.
4AA/	.	.	.	.	.	.	.	.	.
=30	=30	=30	=30	=30	=30	=30	=30	=30	=30
4D\	.	.	1ryy	1ryy	1ryy	1ryy	1ryy	1r	.
8D\L	.	.	.	.	.	.	.	.	.
8D\J	.	.	.	.	.	.	.	.	.
!LO:PB:g=original	!	!	!	!	!	!	!	!	!
2D\	.	.	.	.	.	.	.	.	.
=31	=31	=31	=31	=31	=31	=31	=31	=31	=31
!LO:TX:a:t=C.0	!	!	!	!	!	!	!	!	!
2D\	.	.	1ryy	1ryy	1ryy	1ryy	1ryy	2d/	Po-
2r	.	.	.	.	.	.	.	4f#/	-tens
.	.	.	.	.	.	.	.	4a/	in
=32	=32	=32	=32	=32	=32	=32	=32	=32	=32
2D\	.	.	1ryy	1ryy	1ryy	1ryy	1ryy	4dd\	ter-
.	.	.	.	.	.	.	.	4dd\	-ra
2r	.	.	.	.	.	.	.	[2dd\	po-
!	!	!	!	!	!	!	!	!LO:LB:g=original	!
=33	=33	=33	=33	=33	=33	=33	=33	=33	=33
2D\	.	.	1ryy	1ryy	1ryy	1ryy	1ryy	4dd\]	.
.	.	.	.	.	.	.	.	8ff#\L	.
.	.	.	.	.	.	.	.	8gg\J	.
2r	.	.	.	.	.	.	.	8aa\L	-tens
.	.	.	.	.	.	.	.	8gg\J	.
.	.	.	.	.	.	.	.	8ff#\L	in
.	.	.	.	.	.	.	.	8ee\J	.
=34	=34	=34	=34	=34	=34	=34	=34	=34	=34
4D\	.	.	1ryy	1ryy	1ryy	1ryy	1ryy	8dd\L	ter-
!	!	!	!	!	!	!	!	!LO:SIC:s=8cc#	!
.	.	.	.	.	.	.	.	8cc\J	.
4D\	.	.	.	.	.	.	.	2.dd\	-ra
4D\	.	.	.	.	.	.	.	.	.
4D\	.	.	.	.	.	.	.	.	.
=35	=35	=35	=35	=35	=35	=35	=35	=35	=35
4D\	6 4	.	1ryy	1ryy	1ryy	1ryy	1ryy	4b\	e-
4D\	.	.	.	.	.	.	.	4gg\	-rit
4D\	.	.	.	.	.	.	.	4gg\	ſe-
4D\	.	.	.	.	.	.	.	4b\	-men
!LO:LB:g=original	!	!	!	!	!	!	!	!LO:LB:g=original	!
=36	=36	=36	=36	=36	=36	=36	=36	=36	=36
4D\	6 4	.	1ryy	1ryy	1ryy	1ryy	1ryy	2b\	e-
4D\	.	.	.	.	.	.	.	.	.
4D\	5 3	.	.	.	.	.	.	2a\	-ius
4D\	.	.	.	.	.	.	.	.	.
=37	=37	=37	=37	=37	=37	=37	=37	=37	=37
4AA/	n3	.	1ryy	1ryy	1ryy	1ryy	1ryy	4g/	e-
4AA/	.	.	.	.	.	.	.	8f#/L	-rit
.	.	.	.	.	.	.	.	8e/J	.
4AA/	.	.	.	.	.	.	.	8ee\L	ſe-
.	.	.	.	.	.	.	.	8cc#X\J	.
4AA/	7	.	.	.	.	.	.	8a\L	-men
.	.	.	.	.	.	.	.	8g\J	.
=38	=38	=38	=38	=38	=38	=38	=38	=38	=38
4D\	4	.	1ryy	1ryy	1ryy	1ryy	1ryy	2g\	e-
4D\	3	.	.	.	.	.	.	.	.
4D\	.	.	.	.	.	.	.	2f#\	-ius
4D\	.	.	.	.	.	.	.	.	.
=39	=39	=39	=39	=39	=39	=39	=39	=39	=39
8Cn/L	.	.	1ryy	1ryy	1ryy	1ryy	1ryy	2.a\	ge-
8C/	6	.	.	.	.	.	.	.	.
8C/	.	.	.	.	.	.	.	.	.
8C/J	.	.	.	.	.	.	.	.	.
8C/L	.	.	.	.	.	.	.	.	.
8C/	.	.	.	.	.	.	.	.	.
8C/	.	.	.	.	.	.	.	12ccn\L	-ne-
.	.	.	.	.	.	.	.	12b\	.
8C/J	.	.	.	.	.	.	.	.	.
.	.	.	.	.	.	.	.	12a\J	.
!LO:LB:g=original	!	!	!	!	!	!	!	!LO:PB:g=original	!
=40	=40	=40	=40	=40	=40	=40	=40	=40	=40
8BB/L	.	.	1ryy	1ryy	1ryy	1ryy	1ryy	2.a\	-ra-
8BB/	.	.	.	.	.	.	.	.	.
8BB/	X #	.	.	.	.	.	.	.	.
8BB/J	7 3	.	.	.	.	.	.	.	.
8BB/L	.	.	.	.	.	.	.	.	.
8BB/	.	.	.	.	.	.	.	.	.
!	!	!	!	!	!	!	!	!LO:TUP:a:problem=klamra łukowa	!
8BB/	.	.	.	.	.	.	.	12ccn\L	-ti-
.	.	.	.	.	.	.	.	12b\	.
8BB/J	.	.	.	.	.	.	.	.	.
.	.	.	.	.	.	.	.	12a\J	.
=41	=41	=41	=41	=41	=41	=41	=41	=41	=41
8D#X\L	.	.	1ryy	1ryy	1ryy	1ryy	1ryy	4a\	-o
8D#\	.	.	.	.	.	.	.	.	.
8D#\	.	.	.	.	.	.	.	4ff#\	re-
8D#\J	.	.	.	.	.	.	.	.	.
8D#\L	.	.	.	.	.	.	.	2a\	-cto-
8D#\	.	.	.	.	.	.	.	.	.
8D#\	.	.	.	.	.	.	.	.	.
8D#\J	.	.	.	.	.	.	.	.	.
=42	=42	=42	=42	=42	=42	=42	=42	=42	=42
8E\L	43	.	1ryy	1ryy	1ryy	1ryy	1ryy	4g\	-rum
8E\	.	.	.	.	.	.	.	.	.
8E\	.	.	.	.	.	.	.	4gg\	be-
8E\J	.	.	.	.	.	.	.	.	.
8E\L	.	.	.	.	.	.	.	4gg\	-ne-
8E\	.	.	.	.	.	.	.	.	.
8E\	.	.	.	.	.	.	.	4gg\	-di-
8E\J	.	.	.	.	.	.	.	.	.
!LO:LB:g=original	!	!	!	!	!	!	!	!	!
=43	=43	=43	=43	=43	=43	=43	=43	=43	=43
8A\L	.	.	1ryy	1ryy	1ryy	1ryy	1ryy	4gg\	-ce-
8A\	7	#	.	.	.	.	.	.	.
8A\	.	.	.	.	.	.	.	2gg\	.
8A\J	.	.	.	.	.	.	.	.	.
8A\L	.	.	.	.	.	.	.	.	.
8A\	.	.	.	.	.	.	.	.	.
8A\	.	.	.	.	.	.	.	16ff#\LL	.
.	.	.	.	.	.	.	.	16ee\	.
8A\J	.	.	.	.	.	.	.	16dd\	.
.	.	.	.	.	.	.	.	16cc\JJ	.
!	!	!	!	!	!	!	!	!LO:LB:g=original	!
=44	=44	=44	=44	=44	=44	=44	=44	=44	=44
8A\L	.	.	1ryy	1ryy	1ryy	1ryy	1ryy	4dd\	.
8A\	.	.	.	.	.	.	.	.	.
8A\	6 4	.	.	.	.	.	.	2aa\	.
8A\J	.	.	.	.	.	.	.	.	.
8A\L	.	.	.	.	.	.	.	.	.
8A\	.	.	.	.	.	.	.	.	.
8A\	.	.	.	.	.	.	.	16gg\LL	.
.	.	.	.	.	.	.	.	16ff#\	.
8A\J	.	.	.	.	.	.	.	16ee\	.
.	.	.	.	.	.	.	.	16dd\JJ	.
=45	=45	=45	=45	=45	=45	=45	=45	=45	=45
8A\L	.	.	1ryy	1ryy	1ryy	1ryy	1ryy	4gg\	.
*	*below	*	*	*	*	*	*	*	*
8A\	#3	.	.	.	.	.	.	.	.
8A\	.	.	.	.	.	.	.	2gg\	.
8A\J	.	.	.	.	.	.	.	.	.
8A\L	.	.	.	.	.	.	.	.	.
8A\	.	.	.	.	.	.	.	.	.
8A\	.	.	.	.	.	.	.	16ff#\LL	.
.	.	.	.	.	.	.	.	16ee\	.
8A\J	.	.	.	.	.	.	.	16dd\	.
.	.	.	.	.	.	.	.	16cc#X\JJ	.
!LO:LB:g=original	!	!	!	!	!	!	!	!	!
=46	=46	=46	=46	=46	=46	=46	=46	=46	=46
*	*above	*	*	*	*	*	*	*	*
8F#\L	6	.	1ryy	1ryy	1ryy	1ryy	1ryy	4dd\	-tur
8F#\	.	.	.	.	.	.	.	.	.
8F#\	.	.	.	.	.	.	.	4a\	be-
8F#\J	.	.	.	.	.	.	.	.	.
8F#\L	.	.	.	.	.	.	.	4a\	-ne-
8F#\	.	.	.	.	.	.	.	.	.
8F#\	.	.	.	.	.	.	.	4a\	-di-
8F#\J	.	.	.	.	.	.	.	.	.
!	!	!	!	!	!	!	!	!LO:LB:g=original	!
=47	=47	=47	=47	=47	=47	=47	=47	=47	=47
4G\	.	.	1ryy	1ryy	1ryy	1ryy	1ryy	12b\L	-ce-
.	.	.	.	.	.	.	.	12a\	.
.	.	.	.	.	.	.	.	12b\J	.
4r	.	.	.	.	.	.	.	12gg\L	.
.	.	.	.	.	.	.	.	12ff#\	.
.	.	.	.	.	.	.	.	12ee\J	.
4r	.	.	.	.	.	.	.	12dd\L	.
.	.	.	.	.	.	.	.	12cc#X\	.
.	.	.	.	.	.	.	.	12ee\J	.
4F#\	.	.	.	.	.	.	.	8dd\	.
.	.	.	.	.	.	.	.	8r	.
=48	=48	=48	=48	=48	=48	=48	=48	=48	=48
4G\	.	.	1ryy	1ryy	1ryy	1ryy	1ryy	12b\L	.
.	.	.	.	.	.	.	.	12a\	.
.	.	.	.	.	.	.	.	12b\J	.
4r	.	.	.	.	.	.	.	12gg\L	.
.	.	.	.	.	.	.	.	12ff#\	.
.	.	.	.	.	.	.	.	12ee\J	.
4r	.	.	.	.	.	.	.	12dd\L	.
.	.	.	.	.	.	.	.	12cc#X\	.
.	.	.	.	.	.	.	.	12ee\J	.
4F#\	.	.	.	.	.	.	.	8dd\	.
.	.	.	.	.	.	.	.	8r	.
!	!	!	!	!	!	!	!	!LO:LB:g=original	!
=49	=49	=49	=49	=49	=49	=49	=49	=49	=49
!LO:TX:a:t=P:problem=pominięty fragment	!	!	!	!	!	!	!	!	!
1ryy	.	.	1ryy	1ryy	1ryy	1ryy	1ryy	4b\	.
.	.	.	.	.	.	.	.	4gg\	.
.	.	.	.	.	.	.	.	4.bt\	.
.	.	.	.	.	.	.	.	16a\LL	.
.	.	.	.	.	.	.	.	16b\JJ	.
=50	=50	=50	=50	=50	=50	=50	=50	=50	=50
1ryy	.	.	1ryy	1ryy	1ryy	1ryy	1ryy	2a\	-tur
.	.	.	.	.	.	.	.	8a\L	be-
.	.	.	.	.	.	.	.	8b\	.
.	.	.	.	.	.	.	.	8ccn\	.
.	.	.	.	.	.	.	.	8a\J	.
=51	=51	=51	=51	=51	=51	=51	=51	=51	=51
1ryy	.	.	1ryy	1ryy	1ryy	1ryy	1ryy	2b\	-ne-
.	.	.	.	.	.	.	.	8a\L	-di-
.	.	.	.	.	.	.	.	8b\	.
.	.	.	.	.	.	.	.	8cc\	.
.	.	.	.	.	.	.	.	8a\J	.
!	!	!	!	!	!	!	!	!LO:LB:g=original	!
=52	=52	=52	=52	=52	=52	=52	=52	=52	=52
1ryy	.	.	1ryy	1ryy	1ryy	1ryy	1ryy	2b\	-ce-
.	.	.	.	.	.	.	.	8a\L	.
.	.	.	.	.	.	.	.	8b\	.
.	.	.	.	.	.	.	.	8cc\	.
.	.	.	.	.	.	.	.	8a\J	.
=53	=53	=53	=53	=53	=53	=53	=53	=53	=53
4G\	.	.	1ryy	1ryy	1ryy	1ryy	1ryy	8b\L	.
.	.	.	.	.	.	.	.	8f#\	.
4r	.	.	.	.	.	.	.	8g\	.
.	.	.	.	.	.	.	.	8a\J	.
8r	.	.	.	.	.	.	.	8b\L	.
8F#\L	.	.	.	.	.	.	.	8a\	.
8G\	.	.	.	.	.	.	.	8b\	.
8A\J	.	.	.	.	.	.	.	8cc\J	.
!LO:LB:g=original	!	!	!	!	!	!	!	!	!
=54	=54	=54	=54	=54	=54	=54	=54	=54	=54
4B\	.	.	1ryy	1ryy	1ryy	1ryy	1ryy	8dd\L	.
.	.	.	.	.	.	.	.	8b\	.
4r	.	.	.	.	.	.	.	8cc\	.
.	.	.	.	.	.	.	.	8dd\J	.
8r	.	.	.	.	.	.	.	8ee\L	.
8D\L	.	.	.	.	.	.	.	8ff#\	.
8E\	.	.	.	.	.	.	.	8gg\	.
8F#\J	.	.	.	.	.	.	.	8aa\J	.
!	!	!	!	!	!	!	!	!LO:LB:g=original	!
=55	=55	=55	=55	=55	=55	=55	=55	=55	=55
4G\	.	.	1ryy	1ryy	1ryy	1ryy	1ryy	4bb\	.
4c\	.	.	.	.	.	.	.	16aa\KL	.
.	.	.	.	.	.	.	.	8.gg\J	.
4d\	.	.	.	.	.	.	.	16ff#\KL	.
.	.	.	.	.	.	.	.	8.ee\	.
4F#\	6	.	.	.	.	.	.	16dd\	.
.	.	.	.	.	.	.	.	8.cc\J	.
=56	=56	=56	=56	=56	=56	=56	=56	=56	=56
!	!	!	!	!	!	!	!	!LO:TUP:a:problem=klamra łukowa	!
4G\	.	.	1ryy	1ryy	1ryy	1ryy	1ryy	12b\L	.
.	.	.	.	.	.	.	.	12dd\	.
.	.	.	.	.	.	.	.	12cc\J	.
!	!	!	!	!	!	!	!	!LO:TUP:a:problem=klamra łukowa	!
4GG/	.	.	.	.	.	.	.	12b\L	.
.	.	.	.	.	.	.	.	12a\	.
.	.	.	.	.	.	.	.	12g\J	.
4C/	.	.	.	.	.	.	.	2aT\	.
4D/	.	.	.	.	.	.	.	.	.
=57	=57	=57	=57	=57	=57	=57	=57	=57	=57
4GG/	.	.	1ryy	1ryy	1ryy	1ryy	1ryy	4g\	-tur
4C/	.	.	.	.	.	.	.	4gg\	be-
4BB/	.	.	.	.	.	.	.	4gg\	-ne-
4C/	.	.	.	.	.	.	.	4gg\	-di-
!LO:LB:g=original	!	!	!	!	!	!	!	!LO:LB:g=original	!
=58	=58	=58	=58	=58	=58	=58	=58	=58	=58
4GG/	.	.	1ryy	1ryy	1ryy	1ryy	1ryy	4.gg\	-ce-
4GG/	.	.	.	.	.	.	.	.	.
.	.	.	.	.	.	.	.	16ff#\LL	.
.	.	.	.	.	.	.	.	16ee\JJ	.
4GG/	.	.	.	.	.	.	.	4dd\	.
4GG/	.	.	.	.	.	.	.	4dd\	.
=59	=59	=59	=59	=59	=59	=59	=59	=59	=59
.	.	.	.	.	.	.	.	8qqcc/L	.
.	.	.	.	.	.	.	.	8qqdd/J	.
4C/	.	.	1ryy	1ryy	1ryy	1ryy	1ryy	2ee\	.
4C/	.	.	.	.	.	.	.	.	.
4FF#/	6	.	.	.	.	.	.	16dd\KL	.
.	.	.	.	.	.	.	.	8.cc\	.
4FF#/	5	.	.	.	.	.	.	16b\	.
.	.	.	.	.	.	.	.	8.a\J	.
=60	=60	=60	=60	=60	=60	=60	=60	=60	=60
!	!	!	!	!	!	!	!	!LO:TUP:a:problem=klamra łukowa	!
4GG/	.	.	1ryy	1ryy	1ryy	1ryy	1ryy	12b\L	.
.	.	.	.	.	.	.	.	12dd\	.
.	.	.	.	.	.	.	.	12cc\J	.
4BB/	.	.	.	.	.	.	.	12b\L	.
.	.	.	.	.	.	.	.	12a\	.
.	.	.	.	.	.	.	.	12g\J	.
4C/	.	.	.	.	.	.	.	2aT\	.
*	*below	*	*	*	*	*	*	*	*
4D/	#3	.	.	.	.	.	.	.	.
!	!	!	!	!	!	!	!	!LO:LB:g=original	!
=61	=61	=61	=61	=61	=61	=61	=61	=61	=61
4GG/	.	.	1ryy	1ryy	1ryy	1ryy	1ryy	4g\	-tur
4C/	.	.	.	.	.	.	.	4gg\	be-
4BB/	.	.	.	.	.	.	.	4gg\	-ne-
4C/	.	.	.	.	.	.	.	4gg\	-di-
!LO:LB:g=original	!	!	!	!	!	!	!	!	!
=62	=62	=62	=62	=62	=62	=62	=62	=62	=62
4GG/	.	.	1ryy	1ryy	1ryy	1ryy	1ryy	4.gg\	-ce-
4GG/	.	.	.	.	.	.	.	.	.
.	.	.	.	.	.	.	.	16ff#\LL	.
.	.	.	.	.	.	.	.	16ee\JJ	.
4GG/	.	.	.	.	.	.	.	4dd\	.
4GG/	.	.	.	.	.	.	.	4dd\	.
=63	=63	=63	=63	=63	=63	=63	=63	=63	=63
.	.	.	.	.	.	.	.	8qqcc/L	.
.	.	.	.	.	.	.	.	8qqdd/J	.
*	*above	*	*	*	*	*	*	*	*
4C/	6	.	1ryy	1ryy	1ryy	1ryy	1ryy	2ee\	.
4C/	5	.	.	.	.	.	.	.	.
4FF#/	.	.	.	.	.	.	.	16dd\KL	.
.	.	.	.	.	.	.	.	8.cc\	.
4FF#/	.	.	.	.	.	.	.	16b\K	.
.	.	.	.	.	.	.	.	8.a\J	.
!	!	!	!	!	!	!	!	!LO:LB:g=original	!
=64	=64	=64	=64	=64	=64	=64	=64	=64	=64
!	!	!	!	!	!	!	!	!LO:TUP:a:problem=klamra łukowa	!
4GG/	.	.	1ryy	1ryy	1ryy	1ryy	1ryy	12b\L	.
.	.	.	.	.	.	.	.	12dd\	.
.	.	.	.	.	.	.	.	12cc\J	.
!	!	!	!	!	!	!	!	!LO:TUP:a:problem=klamra łukowa	!
4BB/	.	.	.	.	.	.	.	12b\L	.
.	.	.	.	.	.	.	.	12a\	.
.	.	.	.	.	.	.	.	12g\J	.
4C/	.	.	.	.	.	.	.	2aT\	.
4D\	.	.	.	.	.	.	.	.	.
=65	=65	=65	=65	=65	=65	=65	=65	=65	=65
!LO:TX:a:t=rit.(ornel)lo	!	!	!	!	!	!	!	!	!
4G\	.	.	1ryy	1ryy	1ryy	1ryy	1ryy	2g\	-tur
4c\	.	.	.	.	.	.	.	.	.
4d\	.	.	.	.	.	.	.	2r	.
4F#\	.	.	.	.	.	.	.	.	.
=66	=66	=66	=66	=66	=66	=66	=66	=66	=66
!	!	!	!	!	!	!	!	!LO:TX:b:t=2	!
!	!	!	!	!	!	!	!	!LO:TX:t=P:problem=pojedyncza kreska taktowa	!
4G\	.	.	1ryy	1ryy	1ryy	1ryy	1ryy	0r	.
4BB/	.	.	.	.	.	.	.	.	.
!LO:LB:g=original	!	!	!	!	!	!	!	!	!
=-	=-	=-	=-	=-	=-	=-	=-	=-	=-
4C/	.	.	.	.	.	.	.	.	.
4D/	.	.	.	.	.	.	.	.	.
=67	=67	=67	=67	=67	=67	=67	=67	=67	=67
4GG/	.	.	1ryy	1ryy	1ryy	1ryy	1ryy	.	.
4r	.	.	.	.	.	.	.	.	.
2r	.	.	.	.	.	.	.	.	.
!LO:PB:g=original	!	!	!	!	!	!	!	!LO:PB:g=original	!
==	==	==	==	==	==	==	==	==	==
*-	*-	*-	*-	*-	*-	*-	*-	*-	*-
!!!system-decoration: [(s1,s2)][(s3,s4,s5,s6)][(s7)]
!!!RDF**kern: < = below
!!!RDF**kern: > = above
!!!ENC: Marta Chmielewska
!!!END: 2021-03-30
!!!ENC: Andrzej Gręziak
!!!END: 2021-03-16
